X:1
T:James Gibb editions
T:I saw a maiden  - Pettman
%%score [ ( 1 2 ) ( 3 4 ) ]
L:1/8
Q:1/4=108
M:4/4
K:F
V:1 treble nm="S A" snm="S A"
V:2 treble 
V:3 bass nm="T B" snm="T B"
V:4 bass 
V:1
"^I saw a maiden""^Old Basque\narr. Edgar Pettman\n(1866-1943)""^15th century" (FF)GF (EE)(cc) | %1
w: ~~I * saw a mai\- * den *|
w: ~~This * ve- ry Lord * he *|
w: ~~There was mick- le me- lo- dy at|
w: ~~Ang- els sang that night * and *|
w: ~~Pray we to that child * and *|
 (BB)cB A3 G |[M:4/4] (FF)GF E3 c | (dc)(=BB) c4 ||[M:3/4] c2 | d4 G2 | c4 F2 | B2 A2 G2 | %8
w: sit\- * ten and sing: She|lull\- * ed a child, a|swee- te Lord\- * ing.|Lul-||||
w: made * al- le thing: Of|lord\- * es the Lord, of|king- es the * King.|||||
w: that * chil- des birth: And|all in hea- ven's bliss, they|ma- de mick- le mirth.|||||
w: said- en to that child: Now|blest be thou and she, both|meek * and * mild.|||||
w: to his mo- ther dear, His|bless\- * ing to them that|mak- en now * cheer.|||||
 (AB) c2 F2 |[M:3/4] G4 A2 | B4 d2 ||[M:4/4] c2 F4 (BA) | G2 F2 G4 | F8 |] %14
w: sweet\- * * *|||* * my *|||
w: ||||||
w: ||||||
w: ||||||
w: ||||||
V:2
 (CC)DD (CC)(EE) | (FF)GG F2 E2 |[M:4/4] (FE)DD C2 E2 | (FF)(GG) E4 ||[M:3/4] G2 | (G A G F) E2 | %6
w: |||||lay, * * * *|
 (EG FE) F2 | (GF) E2 E2 | F2 F2 F2 |[M:3/4] (F2 _E2) (F E) | (_E2 D2) (D=E) ||[M:4/4] F2 F4 F2 | %12
w: lay, * * * *|dear * son, my|* ing. Lul-|lay,- * lul\- *|lay, * my *|dear heart, *|
 (D E) F2 (F2 E2) | C8 |] %14
w: own * dear dar\- *|ling.|
V:3
 (A,A,)B,A, (G,G,)(G,G,) | (DD)CC C3 C |[M:4/4] (A,A,)B,A, G,2 C2 | (A,A,)(DD) C4 ||[M:3/4] E2 | %5
 D4 C2 | C4 (DC) | D2 C2 C2 | C2 C2 C2 |[M:3/4] B,4 C2 | F,4 F,2 ||[M:4/4] C2 A,4 (D C) | %12
 B,2 A,2 (C3 B,) | A,8 |] %14
V:4
 (F,F,)B,,B,, (C,C,)(C,C,) | (D,D,)E,E, F,2 C,2 |[M:4/4] (D,C,)B,,B,, C,2 A,,2 | %3
w: |||
 (D,D,)(G,,G,,) C,4 ||[M:3/4] C2 | B,4 (C B,) | A,4 (B,A,) | G,2 C,2 C,2 | (F,G,) A,2 A,2 | %9
w: ||* lul\- *|* my *|||
[M:3/4] G,4 F,2 | B,,4 B,,2 ||[M:4/4] A,,2 D,4 (G,,A,,) | B,,2 D,2 C,4 | F,,8 |] %14
w: |||||

